!!!COM: Beethoven, Ludwig van
!!!CDT: 1770///-1827///
!!!OTL: Piano Sonata no. 1 in F minor
!!!OPS: 2
!!!ONM: 1
!!!OMV: 3
!!!AGN: Minuet and Trio
!!!OMD: Allegretto
**kern	**dynam	**kern	**dynam
*Ipiano	*Ipiano	*Ipiano	*Ipiano
*>[A,A,B,B,C,C,D,D,A,B]	*>[A,A,B,B,C,C,D,D,A,B]	*>[A,A,B,B,C,C,D,D,A,B]	*>[A,A,B,B,C,C,D,D,A,B]
*>norep[A,B,C,D,A,B]	*>norep[A,B,C,D,A,B]	*>norep[A,B,C,D,A,B]	*>norep[A,B,C,D,A,B]
!! Minuetto: Allegretto
*>A	*>A	*>A	*>A
*clefF4	*clefF4	*clefG2	*clefG2
*k[b-e-a-d-]	*k[b-e-a-d-]	*k[b-e-a-d-]	*k[b-e-a-d-]
*f:	*f:	*f:	*f:
*M3/4	*M3/4	*M3/4	*M3/4
*MM118	*MM118	*MM118	*MM118
4r	.	4c'/ 4a-'/	p
=1	=1	=1	=1
4r	.	(4d-/ 4b-/	.
4r	.	4B-/) 4g/	.
4F\	.	4r	.
=2	=2	=2	=2
4r	.	(4c/ 4a-/	.
4r	.	4A-/) 4f/	.
4F\ (4A-\	.	(4c/ 4f/	.
=3	=3	=3	=3
4G\ 4B-\	.	4c/ 4e/	.
4F\ 4A-\	.	4c/ 4f/	.
4E\ 4G\)	.	4c/) 4g/	.
=4	=4	=4	=4
*	*	*^	*
2F\ 2A-\	.	(4b-/	2c\	.
.	.	4a-/)	.	.
4r	.	4e-/ 4cc/	4ryy	.
*	*	*v	*v	*
=5	=5	=5	=5
4r	.	(4f/ 4dd-/	.
4r	.	4d-/) 4b-/	.
4AA-\ 4A-\	.	4r	.
=6	=6	=6	=6
4r	.	(4e-/ 4cc/	.
4r	.	4c/) 4a-/	.
4A-\ (4c\	.	(4e-/ 4a-/	.
=7	=7	=7	=7
4B-\ 4d-\	.	4e-/ 4g/	.
4A-\ 4c\	.	4e-/ 4a-/	.
4G\ 4B-\)	.	4e-/) 4b-/	.
=8	=8	=8	=8
*	*	*^	*
2A-\ 2c\	.	(4dd-/	2e-\	.
.	.	4cc/)	.	.
4c\ (4e-\	.	4ee-/	(4a-\	f
=9	=9	=9	=9	=9
4B-\ 4d-\	.	4ee-/	4g\	.
4A-\ 4c\	.	4ee-/	4a-\	.
4G\ 4B-\)	.	4ee-/	4b-\)	.
=10	=10	=10	=10	=10
2A-\	.	2ee-/	(4dd-\	.
.	.	.	4cc\)	.
4D-\ 4B-\	.	4ryy	4ff\	p
*	*	*v	*v	*
=11	=11	=11	=11
2E-\ 2c\	.	(2a-/	.
.	.	ccq/	.
4E-\ 4d-\	.	4g/ 4b-/)	.
=12	=12	=12	=12
4A-\ 4c\	.	4a-/	.
4r	.	4r	.
4r	.	(8ggz\L	.
.	.	8ff\J)	.
=13	=13	=13	=13
2E-\ 2c\	.	(2a-/	.
.	.	ccq/	.
4E-\ 4d-\	.	4g/) 4b-/	.
=14	=14	=14	=14
4A-\ 4c\	.	4a-/	.
4r	.	4r	.
=:|!|:	=:|!|:	=:|!|:	=:|!|:
*>B	*>B	*>B	*>B
4r	.	4cc\ (4ee-\	p
=15	=15	=15	=15
4r	.	4dd-\ 4ff-\	.
4G\ (4B-\	.	4b-\ 4dd-\)	.
4B-\ 4d-\)	.	4r	.
=16	=16	=16	=16
4r	.	4cc\ (4ee-\	.
4A-\ (4c\	.	4a-\ 4cc\)	.
4c\ 4e-\)	.	4r	.
=17	=17	=17	=17
4r	.	4ee-\ (4gg-\	.
4A\ (4c\	.	4cc\ 4ee-\)	.
4c\ 4e-\)	.	4r	.
=18	=18	=18	=18
4r	.	4dd-\ (4ffn\	.
4B-\ (4d-\	.	4b-\ 4dd-\)	.
4d-\ 4f\)	.	4r	.
=19	=19	=19	=19
2F\ (2d-\	.	(2f/ 2b-/	p
.	.	dd-q/	.
4F\ 4e-\	.	4a/) 4cc/	.
=20	=20	=20	=20
4B-\ 4d-\)	.	4b-\	.
4r	.	4r	.
4r	.	(8gg-z\L	.
.	.	8ff\J)	.
=21	=21	=21	=21
2F\ (2d-\	.	2b-\	pp
.	.	(dd-q/	.
4F\ 4e-\	.	4a\) 4cc\	.
=22	=22	=22	=22
4B-\ 4d-\)	.	4b-\	.
4r	.	4r	.
4F\ (4e-\	.	8a\ (8dd-\L	.
.	.	8cc\J)	.
=23	=23	=23	=23
4B-\ 4d-\)	.	4b-\	.
4r	.	4r	.
4F\ (4e-\	.	8a\ (8dd-\L	.
.	.	8cc\J)	.
=24	=24	=24	=24
4B-\ 4d-\)	.	4b-\	.
4r	.	4r	.
(8d-\L	.	(8dd-\L	ff
8c\J	.	8cc\J	.
=25	=25	=25	=25
8B-\L	.	8b-\L	.
8c\	.	8cc\	.
8d-\	.	8dd-\	.
8c\	.	8cc\	.
8B-\	.	8b-\	.
8c\J	.	8cc\J	.
=26	=26	=26	=26
8B-\L	.	8b-/L	.
8A-\	.	8a-/	.
8G\	.	8g/	.
8A-\	.	8a-/	.
8G\	.	8g/	.
8F\J	.	8f/J	.
=27	=27	=27	=27
8E\L	.	8e/L	.
8F\	.	8f/	.
8G\	.	8g/	.
8F\	.	8f/	.
8A-\	.	8a-/	.
8BB\J)	.	8B/J)	.
=28	=28	=28	=28
4C'\	.	4c'/	.
4c\	.	4r	.
*clefG2	*clefG2	*	*
4c/ 4a-/	.	4r	f
=29	=29	=29	=29
(4d-/ 4b-/	.	4r	.
4B-/) 4g/	.	4r	.
4B-/ 4g/	.	4eenX\	sf
=30	=30	=30	=30
(4c/ 4a-/	.	(4ff\	.
4A-/) 4f/	.	4aa-\)	.
*clefF4	*clefF4	*	*
4F\ 4A-\	.	4ccct\	.
.	.	16bb-qL/	.
.	.	16cccqJ/	.
=31	=31	=31	=31
4E\ (4G\	.	(4ddd-\	sf
4G\ 4B-\)	.	4bb-\)	.
4G\ 4B-\	.	4bb-T\	.
.	.	16aa-qL/	.
.	.	16bb-qJ/	.
=32	=32	=32	=32
4F\ (4A-\	.	(4ccc\	sf
4A-\ 4c\)	.	4aa-\)	.
4A-\ 4c\ 4f\	.	4aa-T\	.
.	.	16ggqL/	.
.	.	16aa-qJ/	.
=33	=33	=33	=33
4G\ 4B-\ 4e\	.	(4bb-\	f
4B-\ 4d-\ 4e\	.	4gg\)	.
4B-\ 4d-\ 4e\	.	4ggT\	.
.	.	16ffqL/	.
.	.	16ggqJ/	.
*clefG2	*clefG2	*	*
=34	=34	=34	=34
*^	*	*	*
(4f/	2B\ 2d\	.	(4aa-\	.
4a-/)	.	.	4ff\)	.
4a-/	4B\ 4d\	.	4ff'\	sf
=35	=35	=35	=35	=35
2a-/	2c\	.	(2ff\	p
.	.	.	aa-q/	.
4b-/	4c\	.	4ee\ 4gg\)	.
=36	=36	=36	=36	=36
4a-/	4f\	.	4ff\	.
*v	*v	*	*	*
4r	.	4r	.
4r	.	(8ee-X\L	pp
.	.	8dd-\J)	.
*clefF4	*clefF4	*	*
=37	=37	=37	=37
2C\ 2A-\	.	(2f/	.
.	.	a-q/	.
4C\ 4B-\	.	4e/) 4g/	.
=38	=38	=38	=38
4F\ 4A-\	.	4f/	.
4r	.	4r	.
4r	.	4r	.
=39	=39	=39	=39
!LO:S:b	!	!LO:S:a	!
(2.CC\ 2.C\	.	(2.E/j 2.G/j 2.c/j	pp
=40	=40	=40	=40
4FF\)	.	4F/j)	.
4r	.	4r	.
=:|!	=:|!	=:|!	=:|!
*>C	*>C	*>C	*>C
*k[b-]	*k[b-]	*k[b-]	*k[b-]
*M3/4	*M3/4	*M3/4	*M3/4
4r	.	4c/	p
=41	=41	=41	=41
!	!	!LO:S:a	!
(4F\	.	(8a/L	.
.	.	8g/	.
4A\	.	8a/	.
.	.	8f/	.
4c\	.	8g/	.
.	.	8a/J	.
=42	=42	=42	=42
4d\	.	8b-/L	.
.	.	8a/	.
4G\	.	8b-/	.
.	.	8g/	.
4F\	.	8a/	.
.	.	8b/J	.
=43	=43	=43	=43
4E\	.	8cc\L	.
.	.	8b\	.
4G\	.	8cc\	.
.	.	8dd\	.
4c\	.	8cc\	.
.	.	8b-\J	.
=44	=44	=44	=44
4F\	.	8a/L	.
.	.	8g/	.
4A\	.	8a/	.
.	.	8b-/	.
4c\)	.	8a/	.
.	.	8f/J)	.
=45	=45	=45	=45
*	*	*^	*
(8AA/L	.	(4a/	2.a\	.
8GG#/	.	.	.	.
8AA/	.	4cc/	.	.
8FF/	.	.	.	.
8GG/	.	4ff/)	.	.
8AA/J	.	.	.	.
=46	=46	=46	=46	=46
8BB-/L	.	(4g/	2.g\	.
8AA/	.	.	.	.
8BB-/	.	4dd/	.	.
8GG/	.	.	.	.
8AA/	.	4ff/)	.	.
8BB/J	.	.	.	.
=47	=47	=47	=47	=47
8C/L	.	4r	2.g\	.
8BB/	.	.	.	.
8C/	.	(4ff/	.	.
8AA/	.	.	.	.
8BB/	.	4ee/)	.	.
8C#/J	.	.	.	.
=48	=48	=48	=48	=48
8D/L	.	4r	2f\	.
8AA/	.	.	.	.
8BB/	.	(4dd/	.	.
8GG/	.	.	.	.
8C/	.	4cc/)	4e\	.
8FF#/J)	.	.	.	.
*	*	*v	*v	*
=49	=49	=49	=49
2GG/	.	8r	.
.	.	(8g/L	.
.	.	8e/	.
.	.	8c/	.
4GGG/	.	8B/ 8f/	.
.	.	8d/J)	.
=50	=50	=50	=50
4CC/	.	4c/	.
4C/	.	4r	.
=:|!|:	=:|!|:	=:|!|:	=:|!|:
*>D	*>D	*>D	*>D
4r	.	4c/	p
=51	=51	=51	=51
*^	*	*	*
(2.c/	[2.C\	.	(8e/L	.
.	.	.	8d/	.
.	.	.	8e/	.
.	.	.	8c/	.
.	.	.	8d/	.
.	.	.	8e/J	.
=52	=52	=52	=52	=52
2.Bn/	2.C\_	.	8f/L	.
.	.	.	8e/	.
.	.	.	8f/	.
.	.	.	8d/	.
.	.	.	8e/	.
.	.	.	8f/J	.
=53	=53	=53	=53	=53
2.B-X/	2.C\_	.	8g/L	.
.	.	.	8f#/	.
.	.	.	8g/	.
.	.	.	8e/	.
.	.	.	8f/	.
.	.	.	8g/J)	.
=54	=54	=54	=54	=54
4A/)	4C\]	.	(8a\L	.
.	.	.	8f\	.
4r	4ryy	.	8a\	.
.	.	.	8cc\	.
4r	4ryy	.	8ff\	.
.	.	.	8aa\J)	.
*v	*v	*	*	*
*clefG2	*clefG2	*	*
=55	=55	=55	=55
(8e/L	.	2.cc\ (2.ccc\	.
8d/	.	.	.
8e/	.	.	.
8c/	.	.	.
8d/	.	.	.
8e/J	.	.	.
=56	=56	=56	=56
8f/L	.	2.bn\ 2.bbn\	.
8e/	.	.	.
8f/	.	.	.
8d/	.	.	.
8e/	.	.	.
8f/J	.	.	.
=57	=57	=57	=57
8g/L	.	4b-X\ 4bb-X\)	.
8f/	.	.	.
8g/	.	8r	.
8e/	.	(8g/L	.
8f/	.	8a/	.
8g/J	.	8b-/J	.
=58	=58	=58	=58
8a/L	.	8cc\L	.
8g/	.	8b-\	.
8a/	.	8cc\	.
8f/	.	8a\	.
8g/	.	8b-\	.
8a/J)	.	8cc\J)	.
=59	=59	=59	=59
*	*	*^	*
(8b-/L	.	(4r	8dd\L	<
8a/	.	.	8cc\	(
8b-/	.	8r	8dd\	(
8g/	.	8ee/L	8b-\	(
8a/	.	8ff/	8cc\	(
8b-/J)	.	8gg/J)	8dd\J	(
*	*	*v	*v	*
=60	=60	=60	=60
(8cc\L	.	8ee\ (8aa\L	(
8b-\	.	8dd\ 8gg\	(
8cc\	.	8ee\ 8aa\	(
8a\	.	8cc\ 8ff\	(
8b-\	.	8dd\ 8gg\	(
8cc\J)	.	8ee\ 8aa\J)	[
=61	=61	=61	=61
(8dd\L	.	8ff\ (8bb-\L	ff
8cc\	.	8ee\ 8aa\	.
8b-\	.	8dd\ 8gg\	.
8cc\	.	8ee\ 8aa\	.
8b-\	.	8dd\ 8gg\	.
8a\J	.	8cc\ 8ff\J	.
=62	=62	=62	=62
8g/L	.	8b-\ 8ee\L	.
8a/	.	8cc\ 8ff\	.
8g/	.	8b-\ 8ee\	.
8f/	.	8a\ 8dd\	.
8e/	.	8g\ 8cc\	.
8f/J)	.	8a\ 8dd\J)	.
*clefF4	*clefF4	*	*
=63	=63	=63	=63
(2.e\	.	(2.g/ 2.cc/	p
=64	=64	=64	=64
2.d\	.	2.f/ 2.bn/	.
=65	=65	=65	=65
2.c\)	.	2.e/) 2.b-X/	pp
=66	=66	=66	=66
(4F\	.	(8a/L	p
.	.	8g/	.
4A\	.	8a/	.
.	.	8f/	.
4c\	.	8g/	.
.	.	8a/J	.
=67	=67	=67	=67
4d\	.	8b-/L	.
.	.	8a/	.
4G\	.	8b-/	.
.	.	8g/	.
4F\	.	8a/	.
.	.	8b/J	.
=68	=68	=68	=68
4E\	.	8cc\L	.
.	.	8b\	.
4G\	.	8cc\	.
.	.	8dd\	.
4c\	.	8cc\	.
.	.	8b-\J	.
=69	=69	=69	=69
4F\	.	8a/L	.
.	.	8g/	.
4A\	.	8a/	.
.	.	8b-/	.
4c\)	.	8a/	.
.	.	8f/J)	.
=70	=70	=70	=70
(8AA/L	.	(4a\	.
8GG#/	.	.	.
8AA/	.	4cc\	.
8FF/	.	.	.
8GG/	.	4ff\	.
8AA/J	.	.	.
=71	=71	=71	=71
8BB-/L	.	4dd\	.
8AA/	.	.	.
8BB-/	.	4g/	.
8GG/	.	.	.
8AA/	.	4f/	.
8BB/J	.	.	.
=72	=72	=72	=72
8C/L	.	4e/	.
8BB/	.	.	.
8C/	.	4g/	.
8BB-/	.	.	.
8AA/	.	4cc/	.
8GG/J	.	.	.
=73	=73	=73	=73
4FF/)	.	4f/)	.
4F\	.	4r	.
=:|!	=:|!	=:|!	=:|!
*-	*-	*-	*-
!!!ENC: Craig Stuart Sapp
!!!END: 2004/04/06/
!!!ONB: preliminary proof reading done on 2008/10/20/
!!!EED: Craig Stuart Sapp
!!!hum2abc: --spacing 1.85
